themes/default/assets/images/icons/micro/architecture.svg

<?xml version="1.0" encoding="UTF-8"?>
<svg width="32px" height="32px" viewBox="0 0 32 32" version="1.1" xmlns="http://www.w3.org/2000/svg" xmlns:xlink="http://www.w3.org/1999/xlink">
    <!-- Generator: sketchtool 59 (101010) - https://sketch.com -->
    <title>8734B44D-3F8D-4605-ABE0-5571B245B9EF</title>
    <desc>Created with sketchtool.</desc>
    <g id="Page-1" stroke="none" stroke-width="1" fill="none" fill-rule="evenodd">
        <g id="Icons" transform="translate(-134.000000, -641.000000)" fill-rule="nonzero">
            <g id="micro-icon-architecture" transform="translate(134.000000, 641.000000)">
                <path d="M27.45,32 L2.59,32 C1.1595825,32 0,30.8404175 0,29.41 L0,6.41 C0,4.97795585 1.15796644,3.81550786 2.59,3.81 L23.46,3.81 C23.8355536,3.81 24.14,4.11444637 24.14,4.49 C24.14,4.86555363 23.8355536,5.17 23.46,5.17 L2.59,5.17 C2.25851873,5.16990139 1.94102967,5.30360032 1.70947782,5.54079977 C1.47792597,5.77799923 1.35191508,6.09861733 1.36,6.43 L1.36,29.43 C1.36,30.1093102 1.91068976,30.66 2.59,30.66 L27.45,30.66 C28.1309468,30.6600221 28.6845085,30.1109246 28.69,29.43 L28.69,7.43 C28.6582012,7.16922862 28.7794552,6.91346602 29.0014652,6.77302236 C29.2234752,6.6325787 29.5065248,6.6325787 29.7285348,6.77302236 C29.9505448,6.91346602 30.0717988,7.16922862 30.04,7.43 L30.04,29.43 C30.0290143,30.8526009 28.8726433,32 27.45,32 Z" id="Path" fill="#A8C5DD"></path>
                <path d="M10.85,27.28 L4.69,27.28 L4.79,26.52 C5.47488022,20.8125222 5.80884128,15.0683918 5.79,9.32 L5.79,8.62 L16.59,8.62 C16.8329406,8.62 17.057427,8.74960726 17.1788973,8.95999999 C17.3003676,9.17039273 17.3003676,9.42960727 17.1788973,9.64000001 C17.057427,9.85039274 16.8329406,9.98000001 16.59,9.98 L7.11,9.98 C7.11551812,15.3059025 6.81837242,20.6278153 6.22,25.92 L10.85,25.92 C11.2255536,25.92 11.53,26.2244464 11.53,26.6 C11.53,26.9755536 11.2255536,27.28 10.85,27.28 L10.85,27.28 Z" id="Path" fill="#032663"></path>
                <path d="M31.93,4 C31.6421763,2.6441906 30.8107955,1.46579864 29.63,0.74 L29.63,0.74 C28.3909678,0.0424101033 26.9374055,-0.171349058 25.55,0.14 L25.28,0.21 L12.53,20.43 L12.72,27.49 L19.14,24.11 L32,4.29 L31.93,4 Z M26.11,1.4 C26.8363996,1.27946226 27.5812332,1.33781327 28.28,1.57 L16.72,19.57 L14.52,19.81 L26.11,1.4 Z M13.89,21.21 L16.7,20.9 L17.8,23.3 L14,25.3 L13.89,21.21 Z M18.77,22.21 L17.87,20.21 L29.44,2.21 C29.9694626,2.69973262 30.3535531,3.32604234 30.55,4.02 L18.77,22.21 Z" id="Shape" fill="#2969F6"></path>
            </g>
        </g>
    </g>
</svg>

<svg xmlns="http://www.w3.org/2000/svg" viewBox="0 0 32 32"><g fill-rule="nonzero" fill="none"><path d="M27.45 32H2.59A2.59 2.59 0 010 29.41v-23a2.6 2.6 0 012.59-2.6h20.87a.68.68 0 010 1.36H2.59a1.23 1.23 0 00-1.23 1.26v23c0 .68.55 1.23 1.23 1.23h24.86c.68 0 1.235-.55 1.24-1.23v-22a.68.68 0 111.35 0v22A2.59 2.59 0 0127.45 32z" fill="#A8C5DD"/><path d="M10.85 27.28H4.69l.1-.76a140.5 140.5 0 001-17.2v-.7h10.8a.68.68 0 110 1.36H7.11a140.58 140.58 0 01-.89 15.94h4.63a.68.68 0 010 1.36z" fill="#032663"/><path d="M31.93 4a5.06 5.06 0 00-2.3-3.26 5.75 5.75 0 00-4.08-.6l-.27.07-12.75 20.22.19 7.06 6.42-3.38L32 4.29 31.93 4zm-5.82-2.6a4.53 4.53 0 012.17.17l-11.56 18-2.2.24L26.11 1.4zM13.89 21.21l2.81-.31 1.1 2.4-3.8 2-.11-4.09zm4.88 1l-.9-2 11.57-18a3.92 3.92 0 011.11 1.81L18.77 22.21z" fill="#2969F6"/></g></svg>
